svg/fluentui-system-icons/ic_fluent_window_header_vertical_20_filled.svg

<svg width="20" height="20" viewBox="0 0 20 20" fill="none" xmlns="http://www.w3.org/2000/svg">
<path d="M3 5.5C3 4.11929 4.11929 3 5.5 3H14.5C15.8807 3 17 4.11929 17 5.5V14.5C17 15.8807 15.8807 17 14.5 17H5.5C4.11929 17 3 15.8807 3 14.5V5.5ZM7 15.5H14.5C15.0523 15.5 15.5 15.0523 15.5 14.5V5.5C15.5 4.94772 15.0523 4.5 14.5 4.5H7V15.5Z" fill="#212121"/>
</svg>

<svg xmlns="http://www.w3.org/2000/svg" width="20" height="20"><path d="M3 5.5A2.5 2.5 0 0 1 5.5 3h9A2.5 2.5 0 0 1 17 5.5v9a2.5 2.5 0 0 1-2.5 2.5h-9A2.5 2.5 0 0 1 3 14.5v-9Zm4 10h7.5a1 1 0 0 0 1-1v-9a1 1 0 0 0-1-1H7v11Z"/></svg>
